X: 2358
T: Baile Bhuirne, The
R: polka
M: 2/4
K: Gmajor
|:GB B>A|GB B>A|GB de|d2 dA|FA AB/A/|
FA Ag|1 fe de|B2 B>A:|2 fd ef|g2 de/f/||
|:gd BG|FG Ag|fe de|B2 de/f/|
gd BG|FG AB|cD BA|1 G2 de/f/:|2 G2 G2||

